brandFactory_export/2.Regular/Nuevo_Destacado_Oferta_2Regular.svg

<?xml version="1.0" encoding="UTF-8"?>
<svg width="24px" height="24px" viewBox="0 0 24 24" version="1.1" xmlns="http://www.w3.org/2000/svg" xmlns:xlink="http://www.w3.org/1999/xlink">
    <title>2.Regular/Nuevo_Destacado_Oferta_2Regular</title>
    <g id="Symbols" stroke="none" stroke-width="1" fill="none" fill-rule="evenodd">
        <g id="2.Regular/Nuevo_Destacado_Oferta_2Regular" fill="#5CB615" fill-rule="nonzero">
            <path d="M11.7781513,23.5529412 C11.1361345,23.5529412 10.7327731,23.0352941 10.6016807,22.8638655 C10.3697479,22.5647059 10.1647059,22.194958 9.9697479,21.8386555 C9.80504202,21.5394958 9.50588235,20.9915966 9.33781513,20.8705882 C9.12268908,20.887395 8.56470588,21.2235294 8.25882353,21.4084034 C7.45210084,21.8957983 6.61848739,22.4 5.88907563,21.9764706 C5.14957983,21.5495798 5.1697479,20.5680672 5.18991597,19.6168067 C5.19663866,19.2672269 5.21008403,18.6252101 5.12268908,18.4336134 C4.93109244,18.3462185 4.28907563,18.3596639 3.9394958,18.3663866 C2.98823529,18.3865546 2.00672269,18.4067227 1.57983193,17.6672269 C1.15630252,16.9344538 1.6605042,16.1042017 2.14789916,15.297479 C2.33277311,14.9915966 2.66890756,14.4336134 2.68571429,14.2184874 C2.56134454,14.0504202 2.01680672,13.7512605 1.71428571,13.5865546 C1.35798319,13.3915966 0.988235294,13.1865546 0.68907563,12.9546218 C0,12.4201681 0,11.9361345 0,11.7781513 C0,11.1361345 0.517647059,10.7327731 0.68907563,10.6016807 C0.988235294,10.3697479 1.35798319,10.1647059 1.71428571,9.9697479 C2.01344538,9.80504202 2.56134454,9.50588235 2.68235294,9.33781513 C2.66554622,9.12268908 2.32941176,8.56470588 2.14453782,8.25882353 C1.65714286,7.45210084 1.15294118,6.61848739 1.57647059,5.88907563 C2.00336134,5.14957983 2.98487395,5.1697479 3.93613445,5.18991597 C4.28571429,5.19663866 4.92773109,5.21008403 5.11932773,5.12268908 C5.20672269,4.93109244 5.19327731,4.28907563 5.18655462,3.9394958 C5.16638655,2.98823529 5.14621849,2.00672269 5.88571429,1.57983193 C6.61848739,1.15630252 7.45210084,1.6605042 8.25546218,2.14789916 C8.56134454,2.33277311 9.11932773,2.66890756 9.33445378,2.68571429 C9.50252101,2.56134454 9.80168067,2.01680672 9.96638655,1.71764706 C10.1613445,1.36134454 10.3663866,0.991596639 10.5983193,0.692436975 C11.1327731,0.00336134454 11.6168067,0.00336134454 11.7747899,0.00336134454 C12.4168067,0.00336134454 12.8201681,0.521008403 12.9512605,0.692436975 C13.1831933,0.991596639 13.3882353,1.36134454 13.5831933,1.71764706 C13.7512605,2.01680672 14.0504202,2.56134454 14.2184874,2.68571429 C14.4336134,2.66890756 14.9915966,2.33277311 15.2941176,2.14789916 C16.1008403,1.6605042 16.9344538,1.15630252 17.6638655,1.57983193 C18.4033613,2.00672269 18.3831933,2.98823529 18.3630252,3.9394958 C18.3563025,4.28907563 18.3428571,4.93109244 18.4302521,5.12268908 C18.6218487,5.21008403 19.2638655,5.19663866 19.6134454,5.18991597 C20.5647059,5.1697479 21.5462185,5.14957983 21.9731092,5.88907563 C22.3966387,6.62184874 21.892437,7.45546218 21.405042,8.25882353 C21.2201681,8.56470588 20.8840336,9.12268908 20.8672269,9.33781513 C20.9915966,9.50588235 21.5361345,9.80504202 21.8352941,9.9697479 C22.1915966,10.1647059 22.5613445,10.3697479 22.8605042,10.6016807 C23.5495798,11.1361345 23.5495798,11.6201681 23.5495798,11.7781513 C23.5495798,12.4201681 23.0319328,12.8235294 22.8605042,12.9546218 C22.5613445,13.1865546 22.1915966,13.3915966 21.8352941,13.5865546 C21.5361345,13.7512605 20.9882353,14.0504202 20.8672269,14.2184874 C20.8840336,14.4336134 21.2201681,14.9915966 21.405042,15.2941176 C21.892437,16.1008403 22.3966387,16.9344538 21.9731092,17.6638655 C21.5462185,18.4033613 20.5613445,18.3831933 19.6134454,18.3630252 C19.2638655,18.3563025 18.6218487,18.3428571 18.4302521,18.4302521 C18.3428571,18.6218487 18.3563025,19.2638655 18.3630252,19.6134454 C18.3831933,20.5647059 18.4033613,21.5462185 17.6638655,21.9731092 C16.9310924,22.3966387 16.1008403,21.892437 15.2941176,21.405042 C14.9882353,21.2201681 14.4302521,20.8840336 14.2151261,20.8672269 C14.0470588,20.9915966 13.7478992,21.5361345 13.5831933,21.8352941 C13.3882353,22.1915966 13.1831933,22.5613445 12.9512605,22.8605042 C12.4201681,23.5529412 11.9361345,23.5529412 11.7781513,23.5529412 Z M9.36134454,19.5226891 C9.47226891,19.5226891 9.58319328,19.5361345 9.6907563,19.5663866 C10.3529412,19.7445378 10.7394958,20.4470588 11.1495798,21.189916 C11.3109244,21.4823529 11.5966387,22.0033613 11.7815126,22.1714286 C11.9663866,22.0033613 12.2521008,21.4823529 12.4134454,21.189916 C12.8235294,20.4436975 13.210084,19.7411765 13.8722689,19.5663866 C14.5546218,19.3848739 15.287395,19.8285714 15.9966387,20.2554622 C16.2655462,20.4168067 16.7361345,20.702521 16.9781513,20.7697479 C17.0420168,20.5243697 17.0319328,19.9630252 17.0252101,19.6436975 C17.0084034,18.7831933 16.9882353,17.9697479 17.4823529,17.4789916 C17.9764706,16.9848739 18.7865546,17.005042 19.6470588,17.0218487 C19.9663866,17.0285714 20.5310924,17.0420168 20.7731092,16.9747899 C20.7058824,16.7327731 20.4201681,16.2621849 20.2588235,15.9932773 C19.8285714,15.2840336 19.3848739,14.5478992 19.5697479,13.8689076 C19.7478992,13.2067227 20.4504202,12.8201681 21.1932773,12.410084 C21.4857143,12.2487395 22.0067227,11.9630252 22.1747899,11.7781513 C22.0067227,11.5932773 21.4857143,11.307563 21.1932773,11.1462185 C20.4470588,10.7361345 19.7445378,10.3495798 19.5697479,9.68739496 C19.3882353,9.00504202 19.8319328,8.27226891 20.2588235,7.56302521 C20.4201681,7.29411765 20.7058824,6.82352941 20.7731092,6.58151261 C20.5277311,6.51764706 19.9663866,6.52773109 19.6470588,6.53445378 C18.7865546,6.5512605 17.9731092,6.57142857 17.4823529,6.07731092 C16.9915966,5.58319328 17.0084034,4.77310924 17.0252101,3.91260504 C17.0319328,3.59327731 17.0453782,3.02857143 16.9781513,2.78319328 C16.7361345,2.85042017 16.2655462,3.13613445 15.9966387,3.29747899 C15.287395,3.72773109 14.5512605,4.16806723 13.8722689,3.98655462 C13.210084,3.80840336 12.8235294,3.10588235 12.4134454,2.36302521 C12.2521008,2.07058824 11.9663866,1.54957983 11.7815126,1.38151261 C11.5966387,1.54957983 11.3109244,2.07058824 11.1495798,2.36302521 C10.7394958,3.1092437 10.3529412,3.81176471 9.6907563,3.98655462 C9.58319328,4.01344538 9.47226891,4.0302521 9.36134454,4.0302521 C8.77647059,4.0302521 8.16134454,3.6605042 7.56302521,3.29747899 C7.29411765,3.13613445 6.82352941,2.85042017 6.58151261,2.78319328 C6.51764706,3.02857143 6.52773109,3.58991597 6.53445378,3.91260504 C6.5512605,4.77310924 6.57142857,5.58655462 6.07731092,6.07731092 C5.58319328,6.56806723 4.77310924,6.5512605 3.91260504,6.53445378 C3.59327731,6.52773109 3.02857143,6.51428571 2.78319328,6.58151261 C2.85042017,6.82352941 3.13613445,7.29411765 3.29747899,7.56302521 C3.72773109,8.27226891 4.17142857,9.00840336 3.98655462,9.68739496 C3.80840336,10.3495798 3.10588235,10.7361345 2.36302521,11.1462185 C2.07058824,11.307563 1.54957983,11.5932773 1.38151261,11.7781513 C1.54957983,11.9630252 2.07058824,12.2487395 2.36302521,12.410084 C3.1092437,12.8201681 3.81176471,13.2067227 3.98655462,13.8689076 C4.16806723,14.5512605 3.72436975,15.2840336 3.29747899,15.9932773 C3.13613445,16.2621849 2.85042017,16.7327731 2.78319328,16.9747899 C3.02857143,17.0386555 3.58991597,17.0285714 3.91260504,17.0218487 C4.77310924,17.005042 5.58655462,16.9848739 6.07731092,17.4789916 C6.57142857,17.9731092 6.5512605,18.7831933 6.53445378,19.6436975 C6.52773109,19.9630252 6.51428571,20.5277311 6.58151261,20.7697479 C6.82352941,20.702521 7.29411765,20.4168067 7.56302521,20.2554622 C8.16134454,19.8957983 8.77647059,19.5226891 9.36134454,19.5226891 Z" id="Nuevo_Destacado_Oferta_2Regular"></path>
        </g>
    </g>
</svg>

<svg width="24" height="24" viewBox="0 0 24 24" xmlns="http://www.w3.org/2000/svg"><path d="M11.778 23.553c-.642 0-1.045-.518-1.176-.69-.232-.298-.437-.668-.632-1.024-.165-.3-.464-.847-.632-.968-.215.016-.773.353-1.08.537-.806.488-1.64.992-2.369.568-.74-.426-.72-1.408-.7-2.36.008-.349.021-.99-.066-1.182-.192-.088-.834-.074-1.184-.068-.95.02-1.932.04-2.36-.699-.423-.733.082-1.563.569-2.37.185-.305.52-.863.538-1.079-.125-.168-.67-.467-.972-.631-.356-.195-.726-.4-1.025-.632C0 12.42 0 11.936 0 11.778c0-.642.518-1.045.69-1.176.298-.232.668-.437 1.024-.632.3-.165.847-.464.968-.632-.016-.215-.353-.773-.537-1.08-.488-.806-.992-1.64-.569-2.369.427-.74 1.409-.72 2.36-.7.35.008.992.021 1.183-.066.088-.192.074-.834.068-1.184-.02-.95-.04-1.932.699-2.36.732-.423 1.566.082 2.37.569.305.185.863.52 1.078.538.169-.125.468-.67.632-.968.195-.357.4-.726.632-1.026.535-.689 1.019-.689 1.177-.689.642 0 1.045.518 1.176.69.232.299.437.668.632 1.025.168.299.467.843.635.968.216-.017.774-.353 1.076-.538.807-.487 1.64-.992 2.37-.568.74.427.72 1.408.699 2.36-.007.35-.02.991.067 1.183.192.087.834.074 1.183.067.952-.02 1.933-.04 2.36.7.424.732-.08 1.565-.568 2.369-.185.306-.521.864-.538 1.079.125.168.67.467.968.632.357.195.726.4 1.026.632.689.534.689 1.018.689 1.176 0 .642-.518 1.046-.69 1.177-.299.232-.668.437-1.025.632-.299.164-.847.463-.968.631.017.216.353.774.538 1.076.487.807.992 1.64.568 2.37-.427.74-1.412.72-2.36.699-.35-.007-.991-.02-1.183.067-.087.192-.074.834-.067 1.183.02.952.04 1.933-.7 2.36-.732.424-1.562-.08-2.369-.568-.306-.185-.864-.521-1.079-.538-.168.125-.467.67-.632.968-.195.357-.4.726-.632 1.026-.53.692-1.015.692-1.173.692zm-2.417-4.03c.111 0 .222.013.33.043.662.179 1.048.881 1.459 1.624.16.292.447.813.632.981.184-.168.47-.689.631-.981.41-.746.797-1.449 1.46-1.624.682-.181 1.414.263 2.124.69.269.16.74.447.981.514.064-.246.054-.807.047-1.126-.017-.86-.037-1.674.457-2.165.494-.494 1.305-.474 2.165-.457.32.007.884.02 1.126-.047-.067-.242-.353-.713-.514-.982-.43-.709-.874-1.445-.69-2.124.179-.662.881-1.049 1.624-1.459.293-.161.814-.447.982-.632-.168-.185-.69-.47-.982-.632-.746-.41-1.448-.796-1.623-1.459-.182-.682.262-1.415.689-2.124.161-.269.447-.74.514-.981-.245-.064-.807-.054-1.126-.048-.86.017-1.674.037-2.165-.457-.49-.494-.474-1.304-.457-2.164.007-.32.02-.884-.047-1.13-.242.067-.712.353-.981.514-.71.43-1.446.871-2.125.69-.662-.179-1.048-.881-1.459-1.624-.16-.292-.447-.813-.631-.981-.185.168-.471.689-.632.981-.41.746-.797 1.449-1.46 1.624a1.363 1.363 0 01-.329.043c-.585 0-1.2-.37-1.798-.733-.269-.16-.74-.447-.981-.514-.064.246-.054.807-.048 1.13.017.86.037 1.674-.457 2.164-.494.491-1.304.474-2.164.457-.32-.006-.884-.02-1.13.048.067.242.353.712.514.981.43.71.874 1.445.69 2.124-.179.663-.881 1.05-1.624 1.46-.292.16-.813.446-.981.631.168.185.689.47.981.632.746.41 1.449.797 1.624 1.459.181.682-.263 1.415-.69 2.124-.16.27-.447.74-.514.982.246.064.807.054 1.13.047.86-.017 1.674-.037 2.164.457.494.494.474 1.304.457 2.165-.006.319-.02.884.048 1.126.242-.067.712-.353.981-.515.598-.36 1.213-.732 1.798-.732z" fill="#5CB615" fill-rule="nonzero"/></svg>
